public/img/icons/children.svg

<svg width="64" height="64" viewBox="0 0 64 64" fill="none" xmlns="http://www.w3.org/2000/svg">
<path d="M16.8173 24.3641C21.4564 24.3641 25.2128 20.6051 25.2128 15.9607C25.2128 13.0662 26.2318 10.4152 23.9947 8.91162C22.6535 7.99741 16.7649 7.56519 15.0255 7.56519C12.9561 7.56519 10.2658 9.25215 8.80154 10.4964C6.98098 12.0341 8.41647 13.3884 8.41647 15.9581C8.41647 20.6051 12.1702 24.3641 16.8173 24.3641ZM10.9653 15.1382C12.5082 14.8579 13.556 15.3661 13.556 15.3661L16.1336 14.1114C16.1336 14.1114 14.8212 16.0079 16 15.3661C18.6247 14.4859 21.5612 14.8527 23.0543 15.1461C23.1067 15.4735 23.1539 15.8088 23.1539 16.1572C23.1539 19.615 20.4086 22.41 17.0006 22.41C13.611 22.41 10.8631 19.615 10.8631 16.1572C10.8631 15.8088 10.9103 15.4735 10.9653 15.1382Z" fill="white"/>
<path d="M57.802 14.7819C57.7628 14.3026 57.7235 13.8258 57.6187 13.3648C57.286 10.4204 54.6508 4.43746 47.0882 4.61559C40.5709 4.77014 39.1485 9.67649 38.8053 12.6627C38.5748 13.3962 38.4255 14.1637 38.3757 14.9627C29.899 16.4427 30.8315 25.0452 36.0077 25.1919C35.5152 20.6994 37.658 18.0013 38.4831 17.1342C39.2454 21.7734 43.2506 25.3386 48.102 25.3386C52.7019 25.3386 56.5421 22.1349 57.582 17.852C58.3757 19.2508 59.7091 22.1166 59.3842 25.1945C67.5388 25.1238 63.5257 15.8009 57.802 14.7819ZM48.102 22.5724C44.2906 22.5724 41.1891 19.5023 41.1026 15.7066C42.4936 15.201 43.5257 12.7911 43.5257 12.7911C43.5257 12.7911 44.3508 13.074 44.3508 15.7957C45.7942 16.2986 48.3011 11.5678 48.3011 11.5678V15.2954C49.8911 15.7302 54.9049 15.1539 54.9049 15.1539L55.0909 15.3111C55.0935 15.3897 55.1144 15.4709 55.1144 15.5521C55.1197 19.4237 51.9763 22.5724 48.102 22.5724Z" fill="white"/>
<path d="M50.1454 25.5901H46.0196H42.575L32.4872 37.7446L22.7243 25.742H11.6254L0 38.5043L2.43615 41.0164L10.7583 33.9149V47.6883H12.427V58.1585H11.3661V59.3871H16.1991V58.1585V47.6883H18.0092V58.1585V59.3871H22.8317V58.1585H21.7734V47.6883H23.7983V34.1742L30.4519 41.0059L33.1709 40.3353L34.6771 40.7125L42.2135 32.0865L42.6431 35.505L35.6437 47.5338H43.7171V58.0066H42.6562V59.2247H47.484V58.0066H47.4892V47.5338H49.294V58.0066V59.2247H54.1244V58.0066H53.0635V47.5338H59.3215L53.1552 35.505L53.4931 31.298L59.3844 39.1932L63.2875 38.2214L53.9463 25.5901H50.1454Z" fill="white"/>
</svg>

<svg xmlns="http://www.w3.org/2000/svg" width="64" height="64" fill="none" viewBox="0 0 64 64"><path fill="#fff" d="M16.817 24.364a8.396 8.396 0 0 0 8.396-8.403c0-2.895 1.019-5.546-1.218-7.05-1.341-.914-7.23-1.346-8.97-1.346-2.069 0-4.76 1.687-6.223 2.931-1.821 1.538-.386 2.892-.386 5.462a8.396 8.396 0 0 0 8.401 8.406m-5.852-9.226c1.543-.28 2.591.228 2.591.228l2.578-1.255S14.82 16.008 16 15.366c2.625-.88 5.561-.513 7.054-.22.053.327.1.663.1 1.011 0 3.458-2.745 6.253-6.153 6.253-3.39 0-6.138-2.795-6.138-6.253 0-.348.047-.684.102-1.019m46.837-.356c-.04-.48-.078-.956-.183-1.417-.333-2.945-2.968-8.928-10.53-8.75-6.518.155-7.94 5.061-8.284 8.048a9.7 9.7 0 0 0-.43 2.3c-8.476 1.48-7.544 10.082-2.367 10.229-.493-4.493 1.65-7.19 2.475-8.058.762 4.64 4.768 8.205 9.619 8.205 4.6 0 8.44-3.204 9.48-7.487.794 1.399 2.127 4.265 1.802 7.343 8.155-.071 4.142-9.394-1.582-10.413m-9.7 7.79c-3.811 0-6.913-3.07-7-6.865 1.392-.506 2.424-2.916 2.424-2.916s.825.283.825 3.005c1.443.503 3.95-4.228 3.95-4.228v3.727c1.59.435 6.604-.141 6.604-.141l.186.157c.002.079.023.16.023.241a7.016 7.016 0 0 1-7.012 7.02m2.043 3.018h-7.57L32.487 37.745l-9.763-12.003H11.625L0 38.504l2.436 2.512 8.322-7.101v13.773h1.669v10.47h-1.06v1.23h4.832v-11.7h1.81v11.7h4.823v-1.23h-1.059v-10.47h2.025V34.174l6.654 6.832 2.719-.67 1.506.377 7.537-8.626.43 3.418-7 12.029h8.073v10.473h-1.06v1.218h4.827v-1.218h.005V47.534h1.805v11.691h4.83v-1.218h-1.06V47.534h6.258l-6.167-12.029.338-4.207 5.891 7.895 3.904-.972-9.342-12.63z"/></svg>
